X:1
T:Visa frÃ¥n Utanmyra
C:Swedish Traditional
Z:www.realbook.site
L:1/8
M:4/4
I:linebreak $
K:F
V:1 treble nm=" " snm=" "
V:1
 A>G |"Dm" F2 D2"A7" ^C2 C>A, |"Dm" D6"E7" E>^G |"Am" A2 A2"A7" A2 =G>E |"Dm" F4"A7" E2 A>G |$ %5
"Dm" F2 D2"A7" ^C2 C>A, |"Dm" D6"C7" E>^G |"Am" A2 A2"A7" A2 =G>E |"Dm" F4"A7" E3 E |$ %9
"Dm" F2 D2"A7" E2 F>G |"F" A6 A2 |"Dm" c2 A2"F" A2 F2 | G6 A>G |$"Dm" F2 E>D"A7" ^C2 C2 | %14
"Bm" D4"F" =c3 A |"F" F2 A>G"C7" E2 C2 |"Dm" D6 z2 |] %17

